src/assets/icons/weeks,simple,26.svg

<svg width="48" height="48" viewBox="0 0 48 48" fill="none" xmlns="http://www.w3.org/2000/svg">
<rect opacity="0.2" x="5" y="5" width="38" height="38" rx="4" fill="black"/>
<path d="M5 13C5 9.22876 5 7.34315 6.17157 6.17157C7.34315 5 9.22876 5 13 5H35C38.7712 5 40.6569 5 41.8284 6.17157C43 7.34315 43 9.22876 43 13V15H5V13Z" fill="black"/>
<path d="M9.9343 38H22.3775V34.983H15.0479V34.8636L17.5962 32.3665C21.1843 29.0938 22.1474 27.4574 22.1474 25.4716C22.1474 22.446 19.6758 20.3068 15.9343 20.3068C12.2695 20.3068 9.75533 22.4972 9.76385 25.9233H13.2667C13.2582 24.2528 14.315 23.2301 15.9087 23.2301C17.4428 23.2301 18.5849 24.1847 18.5849 25.7188C18.5849 27.108 17.7326 28.0625 16.1474 29.5881L9.9343 35.3409V38ZM31.7504 38.2386C35.6367 38.2557 38.2873 35.7074 38.2788 32.1534C38.2873 28.8807 36.0032 26.5199 32.9094 26.5199C30.9918 26.5199 29.2958 27.4403 28.5117 28.983H28.3924C28.4094 25.5824 29.6026 23.4688 31.8782 23.4688C33.2163 23.4688 34.1793 24.2017 34.4606 25.4205H38.0998C37.7504 22.5483 35.364 20.3068 31.8782 20.3068C27.5657 20.3068 24.7958 23.8011 24.7788 29.6648C24.7702 36.0568 28.1623 38.2216 31.7504 38.2386ZM31.7333 35.3409C30.0288 35.3409 28.7674 33.9688 28.7674 32.2642C28.7759 30.5682 30.0629 29.1875 31.7589 29.1875C33.4634 29.1875 34.7077 30.5256 34.6992 32.2557C34.7077 34.0028 33.4379 35.3409 31.7333 35.3409Z" fill="black"/>
</svg>

<svg xmlns="http://www.w3.org/2000/svg" width="48" height="48" fill="none" viewBox="0 0 48 48">
  <rect width="38" height="38" x="5" y="5" fill="#000" opacity=".2" rx="4"/>
  <path fill="#000" d="M5 13c0-3.771 0-5.657 1.172-6.828C7.343 5 9.229 5 13 5h22c3.771 0 5.657 0 6.828 1.172C43 7.343 43 9.229 43 13v2H5v-2zM9.934 38h12.444v-3.017h-7.33v-.12l2.548-2.496c3.588-3.273 4.551-4.91 4.551-6.895 0-3.026-2.471-5.165-6.213-5.165-3.664 0-6.179 2.19-6.17 5.616h3.503c-.009-1.67 1.048-2.693 2.642-2.693 1.534 0 2.676.955 2.676 2.489 0 1.389-.852 2.343-2.438 3.87L9.934 35.34V38zm21.816.239c3.887.017 6.537-2.532 6.529-6.086.008-3.272-2.276-5.633-5.37-5.633-1.917 0-3.613.92-4.397 2.463h-.12c.017-3.4 1.21-5.514 3.486-5.514 1.338 0 2.301.733 2.583 1.951H38.1c-.35-2.872-2.736-5.113-6.222-5.113-4.312 0-7.082 3.494-7.1 9.358-.008 6.392 3.384 8.557 6.972 8.574zm-.017-2.898c-1.704 0-2.966-1.372-2.966-3.077.009-1.696 1.296-3.077 2.992-3.077 1.704 0 2.949 1.339 2.94 3.069.009 1.747-1.261 3.085-2.966 3.085z"/>
</svg>
